X: 107
T: Bluegrass Special
C: Bill Monroe - Ricky Skaggs solo
S: From the" Bluegrass Extravaganza" CD
S: MandoZine TablEdit Archives 
Z: Terry G Martin for MandoZine TablEdit Archives
L: 1/8
Q: 380
M: 4/4
K: A
 z6 AA |: =c=c/B/ =c/B/A =c=c/B/ =c/B/A | =c=c/B/ =c/B/A A2 AA | =c=c/B/ =c/B/A =c=c/B/ =c/B/A | Ae =cB AF/=F/ ED |
 DF A=c2B AF | =c2 =c2 B/=c/B FE | [e2A2E2] [eAE][eAE] A,C EF | A2 [e2A2E2] [e2A2E2] [eAE][eAE] |
 DB zB zB BA | Be B/=c/B A=F/^F/ EF | AA2A2F F=F |1 A,6 AA :|2 A,6 AA ||

 ^d/e/a za a2 aa | a=c'/^c'3/2c' a2 aa | =g^g ed =c/^c/a ed | =c/^c/A =c/^c/A [A2C2] [A2C2] |
 [d2F2D2] [d2F2D2] [d2F2D2] [d2F2D2] | =c/^c/a za ae d=c/^c/ | A2 A=G ED =C^C | A2 [A2A2] [A2A2] [A2A2] |
 =G/^G/e =G^G e2 ee | ea2a d/d/d =c/^c/e | A2 AA E/^D/=D =C/^C/A | [A2A2] [A2A2] [A2A2] AA |
 =c=c/B/ =c/B/A =c=c/B/ =c/B/A | =c=c/B/ =c/B/A A2 AA | =c=c/B/ =c/B/A =c=c/B/ =c/B/A | Ae =cB AF/=F/ ED |
 DF A=c2B AF | =c2 =c2 B/=c/B FE | [e2A2E2] [eAE][eAE] A,C EF | A2 [e2A2E2] [e2A2E2] [eAE][eAE] |
 EB2B2A =c/^c/e | dA =c^c AF EF | AA2A2F F=F | A,6 AA |
 =c=c/B/ =c/B/A ^dd/=d/ ^d/=d/A | =c=c/B/ =c/B/A A2 AA | =c=c/B/ =c/B/A =c=c/B/ =c/B/A | G/A/e =cB AF/=F/ ED |
 DF AB/=c3/2A B=g | =zf2d =cA [g=c][a^c] | dA =c^c A=G E[AE] | E/D/=C D=C/^C3/2A, =G,A, |
 [DB,][D=G,] [D^G,][DB,] [D=G,][D^G,] [DB,][D=G,] | =c/^c/e [d2A2] =c/^c/A FE | A=G2^D/=D3/2=C D=C | CA,2A, A,2 A,2 ||

 [=c'/g/][^c'/a/][c'a] [c'a][c'a] [c'a][c'a] [c'a][c'a] | [c'a][c'a] [c'a][c'a] [c'a][c'a] [c'a][c'a] |
 [=c'/g/][^c'/a/][c'a] [c'a][c'a] [c'a][c'a] [c'a][c'a] | [g/^d/][a/e/][ae] [ae][ae] [ae][ae] [ae][ae] |
 [c/G/][d/A/][dA] [dA][dA] [dA][dA] [dA][dA] | [dA][dA] [dA][dA] [dA][dA] A=c |
 cA =c/^c/e dc AE | D=C ^CA [A2E2] [A2E2] | =G/^G/e =G^G e2 ee | ea eA dA =c^c | AA2A ED =C^C | A2 [A2E2] [A2E2] AA ||

 =c=c/B/ =c/B/A =c=c/B/ =c/B/A | =c=c/B/ =c/B/A A2 AA | =c=c/B/ =c/B/A =c=c/B/ =c/B/A | e2 de =c/^c/A FE |
 DF A=c2B AF | =c2 =c2 B/=c/B FE | [e2A2E2] [eAE][eAE] A,C EF | A2 [eAE][eAE] [eAE][eAE] [eAE][eAE] |
 DB zB zB BA | Be B/=c/B A=F/^F/ EF | AA2A2F F=F | A,6 AA ||

 =c=c/B/ =c/B/A =c=c/B/ =c/B/A | =c=c/B/ =c/B/A A2 AA | =c=c/B/ =c/B/A =c=c/B/ =c/B/A | g/a3/2 =f/^f3/2 =c/^c/A FE |
 DF A=c2B AF | =c2 =c2 B/=c/B FE | [e2A2E2] [eAE][eAE] A,C EF | A[e2A2E2][e2A2E2][eAE] [eAE][eAE] |
 EB2B2B B2 | Be B/=c/B A=F/^F/ EF | A2 AA AF2=F | A,8 ||

 A,C [eAE]A, C[eAE] A,C | [eAE]A, C[eAE] A,C [eAE]A, | C[eAE] A,C [eAE]A, C[eAE] | A,C [eAE]A, =GE CE |
 DF A=c2B AF | =c2 =c2 B/=c/B FE | [e2A2E2] [eAE][eAE] A,C EF | A2 [eAE][eAE] [eAE][eAE] [e2A2E2] |
 =c/^c/e [fd][e2A2]=c ^cA | [g/^d/][a3/2e3/2] [f2=d2] =c/^c/A FE | AA2A2=G GF | A,2 [EA,][EA,] [E2A,2] AA ||

 =c=c/B/ =c/B/A =c=c/B/ =c/B/A | =c=c/B/ =c/B/A EF A=c | B/=c/B A=c B/=c/B A^d | d/^d/=d A=c B/=c/B =cA |
 DF AB/=c3/2B AF | =c2 =c2 B/=c/B FE | [e2A2E2] [eAE][eAE] A,C EF | A2 [e2A2E2] [e2A2E2] [eAE][eAE] |
 DB zB zB BA | B/=c/e B/=c/B A=F/^F/ EF | AA2A2F F=F | A,6 AA ||

 [=c'/g/][^c'/a/][c'a] [c'a][c'a] [c'a][c'a] [c'a][c'a] | [c'a][c'a] [c'a][c'a] [c'a][c'a] [g^d][ae] |
 [ae][ae] [ae][ae] [a2e2] [a2e2] | de =c^c AG =GD | =F/^F/d =F^F d2 dd | ea ed =c/^c/A dA |
 zA z=G =zF zE | zD z=C/^C3/2A, A,2 | =G,^G, B,=G, ^G,B, B,=G, | =c/^c/e [dA]=c ^cE FE |
 AA2A2=G F/=F3/2 | A,3[EA,] [EA,][EA,] [EA,][EA,] ||

 B/=c3/2 B/=c3/2 B/=c3/2 B/=c3/2 | B/=c3/2 B/=c/B AE2A | B/=c3/2 B/=c3/2 B/=c/B AA | B/=c/e =cB AA FE |
 D=F/^F/ AB/=c3/2B AF | B/=c3/2 B/=c3/2 B/=c/B AF | [A2E2] [AE][AE] A,C EF | A2 [e2A2E2] [e2A2E2] [eAE][eAE] |
 DB zB zB BA | Be B/=c/B A=F/^F/ FE |
 [a2c2A2E2] [a2c2A2E2] [a2c2A2E2] [a2c2A2E2] | [a/c/A/E/][a/c/A/E/][acAE] [a2c2A2E2] [a4c4A4E4] ||

% ==========================================================================================================

